!!!!SEGMENT: Lhe2022-Virgo_Christi_egregia.krn
!!!id: Lhe2022
!!!AGN: Motet
!!!SCT: Smijers (1936)
!!!voices: 4
!!!COM: Jean Lhéritier
!!!OTL: Virgo Christi egregia
**kern	**kern	**kern	**kern
*part4	*part3	*part2	*part1
*staff4	*staff3	*staff2	*staff1
*I"Bassus	*I"Tenor	*I"Altus	*I"Superius
*I'B	*I'T	*I'A	*I'S
*clefF4	*clefGv2	*clefG2	*clefG2
*k[]	*k[]	*k[]	*k[]
*C:	*C:	*C:	*C:
*M2/1	*M2/1	*M2/1	*M2/1
*met(C|)	*met(C|)	*met(C|)	*met(C|)
!!section: Prima pars: Virgo Christi egregia
!!!OMD: Prima pars: Virgo Christi egregia
=1	=1	=1	=1
0r	0A	0r	0r
=2	=2	=2	=2
0r	1d	0r	0r
.	1c	.	.
=3	=3	=3	=3
0r	1.f	0r	0a
.	2d	.	.
=4	=4	=4	=4
0r	1f	0r	1dd
.	1e	.	1cc
=5	=5	=5	=5
0D	2.d	0r	1.ff
.	4e	.	.
.	4f	.	.
.	4g	.	.
.	[2a	.	2dd
=6	=6	=6	=6
1d	2a]	0r	1ff
.	4g	.	.
.	4f	.	.
1c	1g	.	1ee
=7	=7	=7	=7
1.f	0a	0d	1dd
.	.	.	2r
2d	.	.	[2dd
=8	=8	=8	=8
1f	1d	1a	4dd]
.	.	.	4cc
.	.	.	2a
1e	1r	1g	1b
=9	=9	=9	=9
2.A	1r	1.cc	4a
.	.	.	4b
.	.	.	4cc
4B	.	.	4dd
4c	[1A	.	4ee
4d	.	.	4ff
[2c	.	2a	[2ee
=10	=10	=10	=10
4c]	1A]	1cc	2ee]
4B	.	.	.
1A	.	.	4dd
.	.	.	4cc
.	1d	1b	2.dd
2G#i	.	.	.
.	.	.	4ee
=11	=11	=11	=11
1A	1c	[0a	2ff
.	.	.	1ee
1r	[1f	.	.
.	.	.	4dd
.	.	.	4cc
=12	=12	=12	=12
0D	2f]	0a]	4dd
.	.	.	4ee
.	2d	.	2.ff
.	1f	.	.
.	.	.	4ee
.	.	.	[2dd
=13	=13	=13	=13
1A	1e	1a	2dd]
.	.	.	2cc
1G	[1g	1d	2b
.	.	.	[2dd
=14	=14	=14	=14
1.c	2g]	1e	2dd]
.	2e	.	4cc
.	.	.	4b
.	2.a	2A	4cc
.	.	.	4dd
2A	.	[2a	[2ee
.	4g	.	.
=15	=15	=15	=15
1B	2f	4a]	4ee]
.	.	4f	4dd
.	4e	2g	1dd
.	4d	.	.
1A	1e	1a	.
.	.	.	2cc#i
=16	=16	=16	=16
2D	2d	0a	1dd
2.d	2.f	.	.
.	.	.	1r
4e	4e	.	.
4f	2d	.	.
4d	.	.	.
=17	=17	=17	=17
2e	4c	2r	1r
.	4A	.	.
2c	1a	2a	.
2d	.	2b	2r
2e	2g#i	2b	2ee
=18	=18	=18	=18
1A	1a	1.cc	2ee
.	.	.	2ff
1r	1e	.	[1gg
.	.	2b	.
=19	=19	=19	=19
0r	0r	2g	2gg]
.	.	2a	2ff
.	.	2b	2dd
.	.	2a	2ee
=20	=20	=20	=20
0r	2r	2d	1.ff
.	2d	1a	.
.	2d	.	.
.	2e	2g	4ee
.	.	.	4dd
=21	=21	=21	=21
1r	1.f	2.a	0cc
.	.	4g	.
2r	.	4a	.
.	.	4b	.
2A	2e	[2cc	.
=22	=22	=22	=22
2A	2c	2cc]	0r
2B	2d	4b	.
.	.	4a	.
[1c	2e	4g	.
.	.	4f	.
.	2e	4e	.
.	.	4d	.
=23	=23	=23	=23
2c]	1.g	2e	2r
2B	.	1d	2b
2G	.	.	2b
2A	2f	[2a	2cc
=24	=24	=24	=24
1B	2d	2a]	1.dd
.	2e	2g#i	.
1A	[1f	1a	.
.	.	.	2cc
=25	=25	=25	=25
2F	2f]	2r	2a
2G	4e	2g	2b
.	4d	.	.
2A	2c	2e	2cc
2G	[2d	[2g	[2b
=26	=26	=26	=26
1A	2d]	4g]	4b]
.	.	4f	4a
.	2c	4e	1a
.	.	4d	.
1E	1B	1e	.
.	.	.	2g
=27	=27	=27	=27
2r	1A	2c	4a
.	.	.	4b
2A	.	2e	4cc
.	.	.	4dd
2A	2r	2e	2ee
2A	2e	2e	[2cc
=28	=28	=28	=28
1.c	2e	4A	4cc]
.	.	4B	4dd
.	2e	4c	1ee
.	.	4d	.
.	[1g	4e	.
.	.	4f	.
2B	.	4g	4dd
.	.	4a	4cc
=29	=29	=29	=29
2G	2g]	2b	2dd
2A	2f	1a	1ff
1B	2d	.	.
.	2e	2g#i	4ee
.	.	.	4dd
=30	=30	=30	=30
1A	1f	1a	0cc
2r	[1e	2r	.
2A	.	[2a	.
=31	=31	=31	=31
1c	1e]	2a]	0r
.	.	2g	.
1d	1r	2f	.
.	.	[2a	.
=32	=32	=32	=32
2A	0r	4a]	0r
.	.	4g	.
1c	.	4e	.
.	.	4f	.
.	.	2g	.
4B	.	2a	.
4A	.	.	.
=33	=33	=33	=33
2B	2r	2a	1.dd
2B	2d	2g#i	.
1A	1f	1a	.
.	.	.	2cc
=34	=34	=34	=34
0r	1g	0r	2b
.	.	.	2.dd
.	2d	.	.
.	.	.	4cc
.	[2f	.	4a
.	.	.	4b
=35	=35	=35	=35
1r	2f]	1r	2cc
.	4e	.	2dd
.	4d	.	.
2r	2e	[1g	2dd
[2c	2e	.	2cc#i
=36	=36	=36	=36
2c]	1d	2g]	1dd
2B	.	2g	.
2.c	[1g	1e	1r
4B	.	.	.
=37	=37	=37	=37
4G	2g]	1d	1.dd
4A	.	.	.
4B	2g	.	.
4c	.	.	.
2d	1f	2r	.
2D	.	2a	2dd
=38	=38	=38	=38
2A	2.e	2a	1cc
2A	.	2a	.
.	4f	.	.
2.G	2g	2d	2.b
.	2e	[2g	.
4A	.	.	4cc
=39	=39	=39	=39
2B	2d	4g]	2dd
.	.	4f	.
2c	2g	4e	2.ee
.	.	4d	.
2A	2.a	4c	.
.	.	4A	4dd
2c	.	[2a	4cc
.	4g	.	4b
=40	=40	=40	=40
2d	4f	2a]	2a
.	4e	.	.
2B	2d	2g	1dd
1A	1e	1a	.
.	.	.	2cc#i
=41	=41	=41	=41
1D	0d	2r	[0dd
.	.	2a	.
2r	.	2a	.
2d	.	2a	.
=42	=42	=42	=42
2d	1r	2f	1dd]
2d	.	2.a	.
2c	2r	.	1r
.	.	4g	.
[2d	2a	4f	.
.	.	4e	.
=43	=43	=43	=43
4d]	2a	1f	2r
4c	.	.	.
4B	2a	.	2dd
4A	.	.	.
2B	2g	2d	2dd
2A	[2a	2e	2cc
=44	=44	=44	=44
1D	2a]	2f	2dd
.	4g	2a	2a
.	4f	.	.
1r	2e	2a	1b
.	2e	2g	.
=45	=45	=45	=45
2r	1c	2a	[0a
2A	.	2e	.
2F	2r	1f	.
2D	2d	.	.
=46	=46	=46	=46
1A	2c	2e	1a]
.	2A	2a	.
1B-X	2d	2f	2r
.	[2f	2d	2dd
=47	=47	=47	=47
0A	2f]	0a	2cc
.	4e	.	2a
.	4d	.	.
.	2e	.	1cc
.	2e	.	.
=48	=48	=48	=48
2B	2d	2f	1dd
2d	2f	2d	.
2d	2e	1a	1ee
2c	2a	.	.
=49	=49	=49	=49
2d	2f	1d	2a
2B	2d	.	1ff
1A	[1a	2r	.
.	.	2a	[2ee
=50	=50	=50	=50
1d	2a]	2f	2ee]
.	4g	2d	1dd
.	4f	.	.
2A	4e	[1a	.
.	4d	.	.
2A	[2e	.	2cc
=51	=51	=51	=51
2F	4e]	0a]	2dd
.	4d	.	.
2D	1d	.	1ff
1A	.	.	.
.	2c	.	[2ee
=52	=52	=52	=52
1B	4d	2f	2ee]
.	4e	.	.
.	4f	2d	1dd
.	4g	.	.
1A	1e	1a	.
.	.	.	2cc#i
=53	=53	=53	=53
0D	[0d	2r	0dd
.	.	2a	.
.	.	2a	.
.	.	2a	.
=54	=54	=54	=54
2r	1d]	2f	0r
2d	.	2.a	.
2d	1r	.	.
.	.	4g	.
2d	.	4f	.
.	.	4e	.
=55	=55	=55	=55
2B	1r	2d	0r
2.e	.	2c	.
.	2r	1f	.
4d	.	.	.
[2d	2a	.	.
=56	=56	=56	=56
2d]	2a	1e	1r
2c#i	2a	.	.
[1d	2f	1d	2r
.	[2a	.	2dd
=57	=57	=57	=57
1d]	4a]	0r	2dd
.	4g	.	.
.	4f	.	2dd
.	4e	.	.
1r	2d	.	2b
.	[2f	.	[2dd
=58	=58	=58	=58
0r	4f]	2r	2dd]
.	4g	.	.
.	1a	2e	2cc
.	.	2e	1b
.	2g#i	2e	.
=59	=59	=59	=59
2r	0a	2c	[0cc
2A	.	2.e	.
2A	.	.	.
.	.	4d	.
2A	.	4c	.
.	.	4B	.
=60	=60	=60	=60
2F	2r	4A	0cc]
.	.	4B	.
2.A	2a	4c	.
.	.	4d	.
.	2a	2e	.
4G	.	.	.
4F	2a	[2f	.
4E	.	.	.
=61	=61	=61	=61
2.D	2f	4f]	2r
.	.	4e	.
.	2.a	4d	2ff
4E	.	4c	.
4F	.	2d	2ff
4G	4g	.	.
[2A	2e	2c	2ee
=62	=62	=62	=62
2A]	2f	1B	1dd
2G	2g	.	.
2.A	2e	1c	2cc
.	[2a	.	[2ee
4B	.	.	.
=63	=63	=63	=63
4c	2a]	1r	4ee]
4d	.	.	4dd
2.e	2g	.	2b
.	1f	2r	2cc
4d	.	.	.
[2d	.	2a	2dd
=64	=64	=64	=64
2d]	1e	2b	2b
2c	.	2cc	1ee
1d	2r	2a	.
.	2d	[2b	[2dd
=65	=65	=65	=65
1A	2e	4b]	2dd]
.	.	4a	.
.	2f	1a	2cc
1B	2d	.	1dd
.	[2g	2g	.
=66	=66	=66	=66
1d	2g]	2a	2r
.	2f	1d	2a
2G	1e	.	2b
2A	.	2c	2cc
=67	=67	=67	=67
2D	2f	2c	1a
1d	2d	2f	.
.	1e	2g	1ee
2c#i	.	2a	.
=68	=68	=68	=68
1d	0r	2f	1ff
.	.	2.a	.
2r	.	.	1ee
.	.	4b	.
2A	.	4cc	.
.	.	4a	.
=69	=69	=69	=69
2d	2r	2b	2dd
2A	2c	1a	2cc
1B-X	2f	.	1dd
.	2d	2g	.
=70	=70	=70	=70
1A	2f	1a	1cc
.	2.e	.	.
2G	.	2r	1r
.	4d	.	.
2F	[2d	2d	.
=71	=71	=71	=71
1E	2d]	2g	2r
.	2c#i	2e	2g
2r	1d	1f	2dd
2D	.	.	2a
=72	=72	=72	=72
2A	2r	2e	1cc
2F	2c	2f	.
1G	2g	[1d	2b
.	2d	.	[2dd
=73	=73	=73	=73
2D	2f	2d]	4dd]
.	.	.	4cc
2G	2g	2d	4b
.	.	.	4a
2c	2r	2e	2g
2A	2c	[2a	[2ee
=74	=74	=74	=74
1B-X	2f	2a]	4ee]
.	.	.	4dd
.	2d	2g	2dd
1A	1e	1a	2cc
.	.	.	[2ee
=75	=75	=75	=75
1G	1g	1b	4ee]
.	.	.	4dd
.	.	.	1dd
1A	1e	[1a	.
.	.	.	2cc#i
=76	=76	=76	=76
2D	2d	2a]	2dd
1d	1a	2f	1ff
.	.	1f	.
2A	2a	.	2ff
=77	=77	=77	=77
2c	2g	2r	2ee
2d	2f	1a	2dd
4A	2e	.	1cc
4B	.	.	.
4c	2A	2a	.
4A	.	.	.
=78	=78	=78	=78
2B	1d	2g	2r
1d	.	2f	1a
.	4A	1e	.
.	4B	.	.
2c#i	4c	.	2a
.	4A	.	.
=79	=79	=79	=79
2d	2B	2r	2g
2D	1d	2a	2f
1A	.	2a	2e
.	2c	2e	[2cc
=80	=80	=80	=80
1G	1d	1g	2cc]
.	.	.	2.b
1F	1A	2c	.
.	.	.	4a
.	.	2d	[2a
=81	=81	=81	=81
1E	1B	1e	2a]
.	.	.	2g#i
2F	2A	2c	[1a
[2D	[2d	[2f	.
=82	=82	=82	=82
4D]	2d]	2f]	1a]
4E	.	.	.
4F	2d	2f	.
4G	.	.	.
4A	2c	2e	2r
4D	.	.	.
[2d	2B	2d	2dd
=83	=83	=83	=83
2d]	1A	2.a	2ee
2c	.	.	2ee
.	.	4g	.
2d	[1a	[1f	2.ff
4D	.	.	.
4E	.	.	8eeL
.	.	.	8ddJ
=84	=84	=84	=84
4F	2a]	1f]	2cc
4G	.	.	.
4A	2a	.	2ff
4B	.	.	.
2c	2g	2r	2ee
2d	2f	[2a	2dd
=85	=85	=85	=85
4A	2e	2a]	1cc
4B	.	.	.
4c	2A	2a	.
4A	.	.	.
2B	1d	2g	2r
[2d	.	2f	[2a
=86	=86	=86	=86
2d]	4A	1e	2a]
.	4B	.	.
2c	4c	.	2a
.	4A	.	.
2d	2B	2r	2g
2D	[2d	2a	2f
=87	=87	=87	=87
1A	2d]	2a	2e
.	2c	2e	1cc
1G	2d	1g	.
.	2d	.	[2b
=88	=88	=88	=88
1F	1A	2c	4b]
.	.	.	4a
.	.	2d	1a
1E	1B	1e	.
.	.	.	2g#i
=89	=89	=89	=89
2F	2A	2c	0a
2.D	1d	1f	.
4E	.	.	.
4F	2d	2f	.
4G	.	.	.
=90	=90	=90	=90
4A	2c	2e	1r
4D	.	.	.
1d	2B	2d	.
.	2A	1a	1ee
2c	2A	.	.
=91	=91	=91	=91
2d	1a	2f	2ff
2A	.	1cc	1ee
2c	2g	.	.
2d	2f	[2b	2dd
=92	=92	=92	=92
2A	2e	4b]	2cc
.	.	4a	.
2A	2c	1a	2.ee
1B	1d	.	.
.	.	.	4dd
.	.	2g#i	[2dd
=93	=93	=93	=93
1A	1e	1a	2dd]
.	.	.	2cc#i
[1Dl	[1dl	[1al	[1ddl
=94	=94	=94	=94
00D]	00d]	00a]	00dd]
==	==	==	==
*-	*-	*-	*-
!!!system-decoration: [*]
!!!RDF**kern: i = editorial accidental
!!!RDF**kern: l = terminal long
!!!ENC: Benjamin Ory
!!!END: 2022/4/25
!!!EED: Benjamin Ory
!!!EEV: 2022/04/25
!!!YEC: Copyright 2022 Benjamin Ory, All Rights Reserved
!!!ONB: Translated from MusicXML on 2022/04/25
